X: 082
T: 2 Linsulaire
T: l'Insulaire
B: Robert Landrin "Potpourri fran\,cois des contre-danse ancienne tel quil se danse chez la Reine ..." 1760 p.8 #2  dance 03 #1
S: http://memory.loc.gov/cgi-bin/query/D?musdibib:2:./temp/~ammem_EbRS:
Z: 2014 John Chambers <jc:trillian.mit.edu>
M: 6/8
L: 1/8
K: G
% - - - - - - - - - - - - - - - - - - - - - - - - -
G2G |\
c2c cdc | !+!B2A ABc | d2d dcB | A3 "4f":|\
|: BAG |\
!+!F2G ABc | !+!B2A BAG | !+!F2G ABA | G3 :|
|: B"4f"cd |\
A3 Bcd | A3 Bcd | ABc Bcd | A3 BAG |\
!+!F2G ABc | !+!B2A BAG | !+!F2G ABA | G3 :|
% - - - - - - - - - - - - - - - - - - - - - - - - -

%%sep 1 1 500
%%sep 1 1 500
